; Generated by Kiri:Moto 3.7.1
; Tue Jan 10 2023 10:44:52 GMT-0500 (Eastern Standard Time)
; Bed left:0 right:220 top:220 bottom:0
; Bed type: fixed
; Target: Creality.Ender.5
; --- process ---
; processName = default
; sliceHeight = 0.25
; sliceShells = 3
; sliceShellOrder = in-out
; sliceLayerStart = last
; sliceLineWidth = 0
; sliceFillAngle = 45
; sliceFillWidth = 1
; sliceFillOverlap = 0.35
; sliceFillSparse = 0.25
; sliceFillRepeat = 1
; sliceFillRate = 0
; sliceFillType = hex
; sliceSupportDensity = 0.25
; sliceSupportOffset = 1
; sliceSupportGap = 1
; sliceSupportSize = 5
; sliceSupportArea = 0.1
; sliceSupportExtra = 0
; sliceSupportAngle = 50
; sliceSupportNozzle = 0
; sliceSupportEnable = false
; sliceSolidMinArea = 1
; sliceBottomLayers = 3
; sliceTopLayers = 3
; firstSliceHeight = 0.25
; firstLayerRate = 30
; firstLayerFillRate = 35
; firstLayerPrintMult = 1
; firstLayerLineMult = 1
; firstLayerYOffset = 0
; firstLayerNozzleTemp = 0
; firstLayerBedTemp = 0
; firstLayerBrim = 0
; firstLayerBrimIn = 0
; firstLayerBrimTrig = 0
; firstLayerBrimGap = 0
; firstLayerBeltLead = 3
; firstLayerBeltBump = 0
; firstLayerFanSpeed = 0
; outputRaft = false
; outputRaftSpacing = 0.2
; outputTemp = 200
; outputBedTemp = 60
; outputFeedrate = 50
; outputFinishrate = 50
; outputSeekrate = 80
; outputShellMult = 1.25
; outputFillMult = 1.25
; outputSparseMult = 1.25
; outputFanSpeed = 255
; outputRetractDist = 1.5
; outputRetractSpeed = 40
; outputRetractWipe = 0
; outputRetractDwell = 20
; outputBrimCount = 2
; outputBrimOffset = 2
; outputShortPoly = 100
; outputMinSpeed = 10
; outputCoastDist = 0
; outputPurgeTower = 0
; outputBeltFirst = false
; outputLayerRetract = false
; outputOriginCenter = false
; outputLoops = 0
; outputInvertX = false
; outputInvertY = false
; sliceMinHeight = 0
; sliceAdaptive = false
; zHopDistance = 0.2
; arcTolerance = 0
; antiBacklash = 1
; ranges = []
; sliceSupportSpan = 5
; sliceSupportOutline = true
; firstLayerFlatten = 0
; outputDraftShield = false
; outputAvoidGaps = true
; sliceFillGrow = 0
; sliceSolidRate = 0
; outputAlternating = false
; sliceDetectThin = off
; sliceLayerStartX = 0
; sliceLayerStartY = 0
; sliceSupportGrow = 0
; --- startup ---
M107                     ; turn off filament cooling fan
G90                      ; set absolute positioning mode
M82                      ; set absolute positioning for extruder
M104 S200 T0             ; set extruder temperature
M140 S60 T0              ; set bed temperature
G28                      ; home axes
G92 E0                   ; reset extruder position
M109 S200 T0             ; wait for extruder to reach target temp
M190 S60 T0              ; wait for bed to reach target temp
G1 E-1.5000 F2400 ; e-retract 1.5
;; --- layer 0 (0.250 @ 0.255) ---
M106 S0
G1 Z0.2550 F4800
; feature brim
G1 X116.9113 Y101.6750
G1 E0.0000 F2400 ; e-engage 1.5
G4 P20
G1 X103.0887 E0.5642 F1359
G1 X101.6750 Y103.0887 E0.6458
G1 Y116.9113 E1.2100
G1 X103.0887 Y118.3250 E1.2916
G1 X116.9113 E1.8558
G1 X118.3250 Y116.9113 E1.9374
G1 Y103.0887 E2.5016
G1 X116.9113 Y101.6750 E2.5832
G1 X117.0770 Y101.2750 F4800
G1 X102.9230 E3.1609 F1391
G1 X101.2750 Y102.9230 E3.2560
G1 Y117.0770 E3.8337
G1 X102.9230 Y118.7250 E3.9288
G1 X117.0770 E4.5066
G1 X118.7250 Y117.0770 E4.6017
G1 Y102.9230 E5.1794
G1 X117.0770 Y101.2750 E5.2745
G1 E3.7745 F2400 ; e-retract 1.5
G1 Z0.4550 F4800 ; z-hop start
; feature shells
G1 X110.0000 Y104.7672
G1 Z0.2550 ; z-hop end
G1 E5.2745 F2400 ; e-engage 1.5
G4 P20
G1 X104.7672 Y110.0000 E5.5766 F955
G1 X110.0000 Y115.2328 E5.8786
G1 X115.2328 Y110.0000 E6.1807
G1 X110.0000 Y104.7672 E6.4827
G1 E4.9827 F2400 ; e-retract 1.5
G1 Z0.4550 F4800 ; z-hop start
G1 X115.1250 Y111.2392
G1 Z0.2550 ; z-hop end
G1 E6.4827 F2400 ; e-engage 1.5
G4 P20
G1 X111.2392 Y115.1250 E6.7070 F759
G1 X115.1250 E6.8656
G1 Y111.2392 E7.0243
G1 X115.5250 Y110.2735 F4800
G1 X110.2735 Y115.5250 E7.3274 F815
G1 X115.5250 E7.5417
G1 Y110.2735 E7.7561
G1 X115.9250 Y115.9172 F4800
G1 Y104.0828 E8.2391 F1169
G1 X115.9172 Y104.0750 E8.2396
G1 X104.0828 E8.7226
G1 X104.0750 Y104.0828 E8.7230
G1 Y115.9172 E9.2061
G1 X104.0828 Y115.9250 E9.2065
G1 X115.9172 E9.6896
G1 X115.9250 Y115.9172 E9.6900
G1 X108.7608 Y115.1250 F4800
G1 X104.8750 Y111.2392 E9.9143 F759
G1 Y115.1250 E10.0729
G1 X108.7608 E10.2315
G1 X109.7265 Y115.5250 F4800
G1 X104.4750 Y110.2735 E10.5347 F815
G1 Y115.5250 E10.7490
G1 X109.7265 E10.9633
G1 X108.2917 Y113.5245 F4800
G1 X104.7672 Y110.0000
G1 X105.3475 Y109.4196
G1 X104.8750 Y108.7608
G1 X108.7608 Y104.8750 E11.1876 F759
G1 X104.8750 E11.3462
G1 Y108.7608 E11.5049
G1 X104.4750 Y109.7265 F4800
G1 X109.7265 Y104.4750 E11.8080 F815
G1 X104.4750 E12.0223
G1 Y109.7265 E12.2367
G1 X106.4755 Y108.2917 F4800
G1 X110.0000 Y104.7672
G1 X110.5804 Y105.3475
G1 X111.2392 Y104.8750
G1 X115.1250 Y108.7608 E12.4610 F759
G1 Y104.8750 E12.6196
G1 X111.2392 E12.7782
G1 X110.2735 Y104.4750 F4800
G1 X115.5250 Y109.7265 E13.0813 F815
G1 Y104.4750 E13.2957
G1 X110.2735 E13.5100
G1 E12.0100 F2400 ; e-retract 1.5
G1 Z0.4550 F4800 ; z-hop start
; feature solid fill
G1 X115.8650 Y104.7007
G1 X114.8650 Y105.7007
G1 Z0.2550 ; z-hop end
G1 E13.5100 F2400 ; e-engage 1.5
G4 P20
G1 X114.2993 Y105.1350 E13.5508 F2100
G1 X113.7336 E13.5797
G1 X114.8650 Y106.2664 E13.6613
G1 Y106.8321 E13.6902
G1 X113.1679 Y105.1350 E13.8126
G1 X112.6023 E13.8415
G1 X114.8650 Y107.3977 E14.0048
G1 Y107.9634 E14.0336
G1 X112.0366 Y105.1350 E14.2377
G1 E12.7377 F2400 ; e-retract 1.5
G1 Z0.4550 F4800 ; z-hop start
G1 X109.0768 Y104.1350
G1 X108.0768 Y105.1350
G1 Z0.2550 ; z-hop end
G1 E14.2377 F2400 ; e-engage 1.5
G4 P20
G1 X108.1049 Y105.1632 E14.2397 F2100
G1 X107.6666 Y105.2905 E14.2630
G1 X106.9454 Y105.1350 E14.3007
G1 X107.5392 Y105.7288 E14.3435
G1 X107.2564 Y106.0117 E14.3639
G1 X106.3797 Y105.1350 E14.4272
G1 X105.8140 E14.4560
G1 X106.9736 Y106.2945 E14.5397
G1 X106.6907 Y106.5774 E14.5601
G1 X105.2483 Y105.1350 E14.6642
G1 X105.1350 Y105.5873 E14.6880
G1 X106.4079 Y106.8602 E14.7798
G1 X106.1250 Y107.1431 E14.8002
G1 X105.1350 Y106.1530 E14.8717
G1 Y106.7187 E14.9005
G1 X105.8422 Y107.4259 E14.9515
G1 X105.3472 Y107.4966 E14.9771
G1 X105.2058 Y107.9208 E14.9999
G1 E13.4999 F2400 ; e-retract 1.5
G1 Z0.4550 F4800 ; z-hop start
G1 X115.8368 Y110.8951
G1 X114.8368 Y111.8951
G1 Z0.2550 ; z-hop end
G1 E14.9999 F2400 ; e-engage 1.5
G4 P20
G1 X114.8650 Y111.9232 E15.0019 F2100
G1 X114.7095 Y112.3334 E15.0243
G1 X114.2712 Y112.4608 E15.0476
G1 X114.8650 Y113.0546 E15.0904
G1 Y113.6203 E15.1193
G1 X113.9883 Y112.7436 E15.1825
G1 X113.7055 Y113.0264 E15.2029
G1 X114.8650 Y114.1860 E15.2866
G1 Y114.7516 E15.3155
G1 X113.4226 Y113.3093 E15.4195
G1 X113.1398 Y113.5921 E15.4400
G1 X114.4127 Y114.8650 E15.5318
G1 X113.8470 E15.5607
G1 X112.8569 Y113.8750 E15.6321
G1 X112.5741 Y114.1578 E15.6525
G1 X113.2813 Y114.8650 E15.7035
G1 X112.5034 Y114.6528 E15.7447
G1 X112.0792 Y114.7942 E15.7675
G1 E14.2675 F2400 ; e-retract 1.5
G1 Z0.4550 F4800 ; z-hop start
G1 X106.1350 Y111.3756
G1 X105.1350 Y112.3756
G1 Z0.2550 ; z-hop end
G1 E15.7675 F2400 ; e-engage 1.5
G4 P20
G1 X107.6244 Y114.8650 E15.9471 F2100
G1 X107.0587 E15.9760
G1 X105.1350 Y112.9412 E16.1148
G1 Y113.5069 E16.1436
G1 X106.4931 Y114.8650 E16.2416
G1 X105.9274 E16.2705
G1 X105.1350 Y114.0726 E16.3277
G1 X105.2484 Y114.7516 E16.3628
;; --- layer 1 (0.250 @ 0.505) ---
M106 S255
G1 Z0.5050 F4800
; feature shells
G1 X110.0000 Y115.2328
G1 X115.2328 Y110.0000 E16.6648 F1310
G1 X110.0000 Y104.7672 E16.9669
G1 X104.7672 Y110.0000 E17.2689
G1 X110.0000 Y115.2328 E17.5710
G1 X111.1142 Y115.2500 F4800
G1 X115.2500 E17.7398 F939
G1 Y111.1142 E17.9086
G1 X111.1142 Y115.2500 E18.1473
G1 X110.1485 Y115.6500 F4800
G1 X115.6500 E18.3719 F1051
G1 Y110.1485 E18.5964
G1 X110.1485 Y115.6500 E18.9140
G1 X115.9172 Y116.0500 F4800
G1 X116.0500 Y115.9172 E18.9217 F1754
G1 Y104.0828 E19.4047
G1 X115.9172 Y103.9500 E19.4124
G1 X104.0828 E19.8954
G1 X103.9500 Y104.0828 E19.9031
G1 Y115.9172 E20.3861
G1 X104.0828 Y116.0500 E20.3938
G1 X115.9172 E20.8768
G1 X108.8858 Y115.2500 F4800
G1 X104.7500 Y111.1142 E21.1155 F939
G1 Y115.2500 E21.2844
G1 X108.8858 E21.4532
G1 X109.8515 Y115.6500 F4800
G1 X104.3500 Y110.1485 E21.7707 F1051
G1 Y115.6500 E21.9953
G1 X109.8515 E22.2198
G1 X108.1159 Y113.3487 F4800
G1 X104.7672 Y110.0000
G1 X105.2364 Y109.5307
G1 X104.7500 Y108.8858
G1 X108.8858 Y104.7500 E22.4585 F939
G1 X104.7500 E22.6274
G1 Y108.8858 E22.7962
G1 X104.3500 Y109.8515 F4800
G1 X109.8515 Y104.3500 E23.1137 F1051
G1 X104.3500 E23.3383
G1 Y109.8515 E23.5628
G1 X106.6513 Y108.1159 F4800
G1 X110.0000 Y104.7672
G1 X110.4693 Y105.2364
G1 X111.1142 Y104.7500
G1 X115.2500 Y108.8858 E23.8016 F939
G1 Y104.7500 E23.9704
G1 X111.1142 E24.1392
G1 X110.1485 Y104.3500 F4800
G1 X115.6500 Y109.8515 E24.4567 F1051
G1 Y104.3500 E24.6813
G1 X110.1485 E24.9058
G1 E23.4058 F2400 ; e-retract 1.5
G1 Z0.7050 F4800 ; z-hop start
; feature solid fill
G1 X106.5757 Y104.0100
G1 X105.5757 Y105.0100
G1 Z0.5050 ; z-hop end
G1 E24.9058 F2400 ; e-engage 1.5
G4 P20
G1 X105.0100 Y105.5757 E24.9466 F3000
G1 Y106.1414 E24.9755
G1 X106.1414 Y105.0100 E25.0571
G1 X106.7071 E25.0860
G1 X105.0100 Y106.7071 E25.2085
G1 Y107.2727 E25.2373
G1 X107.2727 Y105.0100 E25.4006
G1 X107.8384 E25.4294
G1 X105.0100 Y107.8384 E25.6335
G1 E24.1335 F2400 ; e-retract 1.5
G1 Z0.7050 F4800 ; z-hop start
G1 X106.0100 Y110.7982
G1 X105.0100 Y111.7982
G1 Z0.5050 ; z-hop end
G1 E25.6335 F2400 ; e-engage 1.5
G4 P20
G1 X105.0382 Y111.7701 E25.6356 F3000
G1 X105.1655 Y112.2084 E25.6588
G1 X105.0100 Y112.9296 E25.6965
G1 X105.6038 Y112.3358 E25.7393
G1 X105.8867 Y112.6186 E25.7597
G1 X105.0100 Y113.4953 E25.8230
G1 Y114.0610 E25.8519
G1 X106.1695 Y112.9014 E25.9355
G1 X106.4524 Y113.1843 E25.9559
G1 X105.0100 Y114.6266 E26.0600
G1 X105.2123 Y114.9900 E26.0812
G1 X106.7352 Y113.4671 E26.1911
G1 X107.0181 Y113.7500 E26.2115
G1 X105.7780 Y114.9900 E26.3010
G1 X106.3437 E26.3298
G1 X107.3009 Y114.0328 E26.3989
G1 X107.5837 Y114.3157 E26.4193
G1 X106.9094 Y114.9900 E26.4680
G1 X107.6708 Y114.7942 E26.5081
G1 X108.0951 Y114.9357 E26.5309
G1 E25.0309 F2400 ; e-retract 1.5
G1 Z0.7050 F4800 ; z-hop start
G1 X112.7701 Y104.0382
G1 X111.7701 Y105.0382
G1 Z0.5050 ; z-hop end
G1 E26.5309 F2400 ; e-engage 1.5
G4 P20
G1 X111.7982 Y105.0100 E26.5329 F3000
G1 X112.2084 Y105.1655 E26.5553
G1 X112.3358 Y105.6038 E26.5786
G1 X112.9296 Y105.0100 E26.6215
G1 X113.4953 E26.6503
G1 X112.6186 Y105.8867 E26.7136
G1 X112.9014 Y106.1695 E26.7340
G1 X114.0610 Y105.0100 E26.8176
G1 X114.6267 E26.8465
G1 X113.1843 Y106.4524 E26.9506
G1 X113.4671 Y106.7352 E26.9710
G1 X114.9900 Y105.2123 E27.0809
G1 Y105.7780 E27.1097
G1 X113.7500 Y107.0181 E27.1992
G1 X114.0328 Y107.3009 E27.2196
G1 X114.9900 Y106.3437 E27.2887
G1 Y106.9094 E27.3175
G1 X114.3157 Y107.5837 E27.3662
G1 X114.7942 Y107.6708 E27.3910
G1 X114.9357 Y108.0951 E27.4138
G1 E25.9138 F2400 ; e-retract 1.5
G1 Z0.7050 F4800 ; z-hop start
G1 X113.0006 Y113.9900
G1 X112.0006 Y114.9900
G1 Z0.5050 ; z-hop end
G1 E27.4138 F2400 ; e-engage 1.5
G4 P20
G1 X114.9900 Y112.0006 E27.6295 F3000
G1 Y112.5662 E27.6584
G1 X112.5663 Y114.9900 E27.8333
G1 X113.1319 E27.8621
G1 X114.9900 Y113.1319 E27.9962
G1 Y113.6976 E28.0251
G1 X113.6976 Y114.9900 E28.1183
G1 X114.2633 E28.1472
G1 X114.9900 Y114.2633 E28.1996
G1 X114.9095 Y114.9095 E28.2328
;; --- layer 2 (0.250 @ 0.755) ---
G1 Z0.7550 F4800
; feature shells
G1 X115.2328 Y110.0000
G1 X110.0000 Y104.7672 E28.5349 F1310
G1 X104.7672 Y110.0000 E28.8369
G1 X110.0000 Y115.2328 E29.1390
G1 X115.2328 Y110.0000 E29.4411
G1 X115.2500 Y111.1142 F4800
G1 X111.1142 Y115.2500 E29.6798 F939
G1 X115.2500 E29.8486
G1 Y111.1142 E30.0174
G1 X115.6500 Y110.1485 F4800
G1 X110.1485 Y115.6500 E30.3350 F1051
G1 X115.6500 E30.5595
G1 Y110.1485 E30.7841
G1 X116.0500 Y115.9172 F4800
G1 Y104.0828 E31.2671 F1754
G1 X115.9172 Y103.9500 E31.2748
G1 X104.0828 E31.7578
G1 X103.9500 Y104.0828 E31.7655
G1 Y115.9172 E32.2485
G1 X104.0828 Y116.0500 E32.2562
G1 X115.9172 E32.7392
G1 X116.0500 Y115.9172 E32.7469
G1 X108.8858 Y115.2500 F4800
G1 X104.7500 Y111.1142 E32.9856 F939
G1 Y115.2500 E33.1544
G1 X108.8858 E33.3232
G1 X109.8515 Y115.6500 F4800
G1 X104.3500 Y110.1485 E33.6408 F1051
G1 Y115.6500 E33.8653
G1 X109.8515 E34.0899
G1 X108.1159 Y113.3487 F4800
G1 X104.7672 Y110.0000
G1 X105.2364 Y109.5307
G1 X104.7500 Y108.8858
G1 X108.8858 Y104.7500 E34.3286 F939
G1 X104.7500 E34.4974
G1 Y108.8858 E34.6662
G1 X104.3500 Y109.8515 F4800
G1 X109.8515 Y104.3500 E34.9838 F1051
G1 X104.3500 E35.2083
G1 Y109.8515 E35.4329
G1 X106.6513 Y108.1159 F4800
G1 X110.0000 Y104.7672
G1 X110.4693 Y105.2364
G1 X111.1142 Y104.7500
G1 X115.2500 Y108.8858 E35.6716 F939
G1 Y104.7500 E35.8404
G1 X111.1142 E36.0092
G1 X110.1485 Y104.3500 F4800
G1 X115.6500 Y109.8515 E36.3268 F1051
G1 Y104.3500 E36.5513
G1 X110.1485 E36.7759
G1 E35.2759 F2400 ; e-retract 1.5
G1 Z0.9550 F4800 ; z-hop start
; feature solid fill
G1 X115.9900 Y104.5757
G1 X114.9900 Y105.5757
G1 Z0.7550 ; z-hop end
G1 E36.7759 F2400 ; e-engage 1.5
G4 P20
G1 X114.4243 Y105.0100 E36.8167 F3000
G1 X113.8586 E36.8456
G1 X114.9900 Y106.1414 E36.9272
G1 Y106.7071 E36.9561
G1 X113.2929 Y105.0100 E37.0785
G1 X112.7273 E37.1074
G1 X114.9900 Y107.2727 E37.2706
G1 Y107.8384 E37.2995
G1 X112.1616 Y105.0100 E37.5036
G1 E36.0036 F2400 ; e-retract 1.5
G1 Z0.9550 F4800 ; z-hop start
G1 X109.2018 Y104.0100
G1 X108.2018 Y105.0100
G1 Z0.7550 ; z-hop end
G1 E37.5036 F2400 ; e-engage 1.5
G4 P20
G1 X108.2299 Y105.0382 E37.5056 F3000
G1 X107.7916 Y105.1655 E37.5289
G1 X107.0704 Y105.0100 E37.5665
G1 X107.6642 Y105.6038 E37.6094
G1 X107.3814 Y105.8867 E37.6298
G1 X106.5047 Y105.0100 E37.6931
G1 X105.9390 E37.7219
G1 X107.0986 Y106.1695 E37.8056
G1 X106.8157 Y106.4524 E37.8260
G1 X105.3733 Y105.0100 E37.9301
G1 X105.0100 Y105.2123 E37.9513
G1 X106.5329 Y106.7352 E38.0612
G1 X106.2500 Y107.0181 E38.0816
G1 X105.0100 Y105.7780 E38.1710
G1 Y106.3437 E38.1999
G1 X105.9672 Y107.3009 E38.2690
G1 X105.6843 Y107.5837 E38.2894
G1 X105.0100 Y106.9094 E38.3380
G1 X105.2058 Y107.6708 E38.3781
G1 X105.0643 Y108.0951 E38.4010
G1 E36.9010 F2400 ; e-retract 1.5
G1 Z0.9550 F4800 ; z-hop start
G1 X115.9618 Y110.7701
G1 X114.9618 Y111.7701
G1 Z0.7550 ; z-hop end
G1 E38.4010 F2400 ; e-engage 1.5
G4 P20
G1 X114.9900 Y111.7982 E38.4030 F3000
G1 X114.8345 Y112.2084 E38.4254
G1 X114.3962 Y112.3358 E38.4487
G1 X114.9900 Y112.9296 E38.4915
G1 Y113.4953 E38.5204
G1 X114.1133 Y112.6186 E38.5836
G1 X113.8305 Y112.9014 E38.6040
G1 X114.9900 Y114.0610 E38.6877
G1 Y114.6266 E38.7166
G1 X113.5476 Y113.1843 E38.8206
G1 X113.2648 Y113.4671 E38.8410
G1 X114.7877 Y114.9900 E38.9509
G1 X114.2220 E38.9798
G1 X112.9819 Y113.7500 E39.0693
G1 X112.6991 Y114.0328 E39.0897
G1 X113.6563 Y114.9900 E39.1587
G1 X113.0906 E39.1876
G1 X112.4163 Y114.3157 E39.2363
G1 X112.3292 Y114.7942 E39.2611
G1 X111.9049 Y114.9357 E39.2839
G1 E37.7839 F2400 ; e-retract 1.5
G1 Z0.9550 F4800 ; z-hop start
G1 X106.0100 Y111.0006
G1 X105.0100 Y112.0006
G1 Z0.7550 ; z-hop end
G1 E39.2839 F2400 ; e-engage 1.5
G4 P20
G1 X107.9994 Y114.9900 E39.4996 F3000
G1 X107.4337 E39.5284
G1 X105.0100 Y112.5662 E39.7033
G1 Y113.1319 E39.7322
G1 X106.8681 Y114.9900 E39.8663
G1 X106.3024 E39.8951
G1 X105.0100 Y113.6976 E39.9884
G1 Y114.2633 E40.0172
G1 X105.7367 Y114.9900 E40.0697
G1 X105.0905 Y114.9095 E40.1029
;; --- layer 3 (0.250 @ 1.005) ---
G1 Z1.0050 F4800
; feature shells
G1 X104.7672 Y110.0000
G1 X110.0000 Y115.2328 E40.4049 F1310
G1 X115.2328 Y110.0000 E40.7070
G1 X110.0000 Y104.7672 E41.0091
G1 X104.7672 Y110.0000 E41.3111
G1 E39.8111 F2400 ; e-retract 1.5
G1 Z1.2050 F4800 ; z-hop start
G1 X111.1142 Y115.2500
G1 Z1.0050 ; z-hop end
G1 E41.3111 F2400 ; e-engage 1.5
G4 P20
G1 X115.2500 E41.4799 F939
G1 Y111.1142 E41.6487
G1 X111.1142 Y115.2500 E41.8875
G1 X110.1485 Y115.6500 F4800
G1 X115.6500 E42.1120 F1051
G1 Y110.1485 E42.3366
G1 X110.1485 Y115.6500 E42.6541
G1 X115.9172 Y116.0500 F4800
G1 X116.0500 Y115.9172 E42.6618 F1754
G1 Y104.0828 E43.1448
